X:1
T:Joy To The World
T:Joy To The World
T:Isaac Watts
T:Georg F. Händel
%%score 1 2
L:1/8
M:2/4
K:C
V:1 treble nm="Ladies" snm="L."
V:2 treble-8 nm="Gents" snm="G."
V:1
 c2 B>A | G3 F | E2 D2 | C3 G | A3 A | B3 B | c4- | c3 c | (cB) (AG) | (G>F E)c | (cB) (AG) | %11
w: Joy to the|world! The|Lord is|come. Let|earth re-|ceive her|King.|_ Let|ev- * 'ry _|heart _ _ pre-|pare _ Him _|
w: Joy to the|world! The|Savi- our|reigns. Let|men their|songs em-|ploy.|_ While|fields _ and _|rocks, _ _ hi-|ills _ and _|
w: No more let|sin and|sor- row|grow, nor|thorns in-|fest the|ground.|_ He|comes _ to _|make _ _ His|ble- * ssings _|
w: He rules the|world with|truth and|grace, and|makes the|nati- ons|prove,|_ The|glo- * ries _|of _ _ His|right- * ous- *|
 (G>F E)E | EE EE/F/ | G3 (F/E/) | DD DD/E/ | F3 (E/D/) | Cc- cA | (G>F E)F | E2 D2 | C4 :| %20
w: room, _ _ and|heav'n and na- tu- re|sing, and _|heav'n and na- tu- re|sing, and _|heav'n _ _ and|heav'n _ _ and|na- ture|sing.|
w: plains, _ _ re-|peat the so- und- ing|joy, re- *|peat the so- und- ing|joy, re- *|pe- at, _ re-|peat _ _ the|sound- ing|joy.|
w: flow, _ _ far|as the cur- se is|found, far _|as the cur- se is|found, fa- *|ar as _ far|as _ _ the|curse is|found.|
w: nes, _ _ and|won- ders of His _|love, and _|won- ders of His _|love, and _|won- ders, _ and|won- * * ders|of His|love.|
V:2
 e2 g>f | e3 d | c2 B2 | c3 e | f3 f | f3 f | e4- | e3 e | (eg) (fe) | (e>d c)e | (eg) (fe) | %11
 (e>d c)c | cc cc/d/ | e3 (d/c/) | BB BB/c/ | d3 (c/B/) | ce- ef | (e>d c)d | c2 B2 | c4 :| %20

